symbols/web/security_update_warning/materialsymbolsrounded/security_update_warning_gradN25_40px.svg

<svg xmlns="http://www.w3.org/2000/svg" height="40" width="40"><path d="M20.042 23.042q-.584 0-.959-.375t-.375-.917v-8.125q0-.542.375-.937.375-.396.959-.396.541 0 .916.396.375.395.375.937v8.125q0 .542-.375.917t-.916.375ZM20 28q-.583 0-1-.417-.417-.416-.417-1 0-.583.417-1 .417-.416 1-.416t1 .416q.417.417.417 1 0 .584-.417 1-.417.417-1 .417Zm-8.792 10.042q-1.083 0-1.875-.771-.791-.771-.791-1.854V4.583q0-1.083.791-1.854.792-.771 1.875-.771h17.584q1.083 0 1.875.771.791.771.791 1.854v30.834q0 1.083-.791 1.854-.792.771-1.875.771Zm0-6.709h17.584V8.667H11.208Zm0 2.625v1.459h17.584v-1.459Zm0-27.916h17.584V4.583H11.208Zm0-1.459v1.459-1.459Zm0 30.834v-1.459 1.459Z"/></svg>

<svg xmlns="http://www.w3.org/2000/svg" height="40" width="40"><path d="M20.042 23.042Q19.458 23.042 19.083 22.667Q18.708 22.292 18.708 21.75V13.625Q18.708 13.083 19.083 12.688Q19.458 12.292 20.042 12.292Q20.583 12.292 20.958 12.688Q21.333 13.083 21.333 13.625V21.75Q21.333 22.292 20.958 22.667Q20.583 23.042 20.042 23.042ZM20 28Q19.417 28 19 27.583Q18.583 27.167 18.583 26.583Q18.583 26 19 25.583Q19.417 25.167 20 25.167Q20.583 25.167 21 25.583Q21.417 26 21.417 26.583Q21.417 27.167 21 27.583Q20.583 28 20 28ZM11.208 38.042Q10.125 38.042 9.333 37.271Q8.542 36.5 8.542 35.417V4.583Q8.542 3.5 9.333 2.729Q10.125 1.958 11.208 1.958H28.792Q29.875 1.958 30.667 2.729Q31.458 3.5 31.458 4.583V35.417Q31.458 36.5 30.667 37.271Q29.875 38.042 28.792 38.042ZM11.208 31.333H28.792V8.667H11.208ZM11.208 33.958V35.417Q11.208 35.417 11.208 35.417Q11.208 35.417 11.208 35.417H28.792Q28.792 35.417 28.792 35.417Q28.792 35.417 28.792 35.417V33.958ZM11.208 6.042H28.792V4.583Q28.792 4.583 28.792 4.583Q28.792 4.583 28.792 4.583H11.208Q11.208 4.583 11.208 4.583Q11.208 4.583 11.208 4.583ZM11.208 4.583Q11.208 4.583 11.208 4.583Q11.208 4.583 11.208 4.583V6.042V4.583Q11.208 4.583 11.208 4.583Q11.208 4.583 11.208 4.583ZM11.208 35.417Q11.208 35.417 11.208 35.417Q11.208 35.417 11.208 35.417V33.958V35.417Q11.208 35.417 11.208 35.417Q11.208 35.417 11.208 35.417Z"/></svg>
